X:1
T:Liebesträume No. 3
T:Liebesträume No. 3
T:S. 541
T:Franz Liszt
C:Franz Liszt
%%score { ( 1 4 6 ) | ( 2 3 5 ) }
L:1/8
Q:1/4=144
M:6/4
K:Ab
V:1 treble nm="Piano" snm="Pno."
V:4 treble 
V:6 treble 
V:2 bass 
V:3 bass 
V:5 bass 
V:1
"^Poco allegro, con affento" z2 | z (EAcAE) z (EAcAE) | z (=EBcBE) z (EBcBE) | %3
 z (_E=AcAE) z!<(! (EAcA!<)!E) | z!>(! (=D_AcAD)!>)! z (DAcAD) | z (_DEcED) z (DEGED) | %6
"_sempre Pedale" z (CEAEC) z (A,CAEA,) | z (EAcAE) z!<(! (EAcAE) | z (=EBcBE) z (EBc!<)!BE) | %9
 z (_E=AcAE) z (EFcAE) | z =D_AfcA z A,B,FDB, | z B,_DGED z DEGED | z CEAEC z CAECA, | %13
 z DA_FD z z DAFD z | z EcAEC z EcAE z |"^poco cresc. ed agitato" z FcAF z z FcAF z | %16
 z Gc=ecG z GcecG | z =Ac=e!>(!cA z AcecA | z ^G=B=eBG z EGBGE | z =E^G^cGE z CEGEC | %20
 z!>)! ^D^^F^AFD z _F_A_dAF | z _E=G_BGE z _FABAF | z EGBGE z AB_fBA | !fermata!z12 | %24
 z12[Q:3/4=80] | %25
 z2 [_FA][EG][Ad][GB][d_f]!<(![Be][fa][eg][ad'][gb]!8va(![d'_f'][be']!<)![f'a'][e'g'][a'd''][g'b']([d''_f''][b'e''][d''f''][b'e''][a'd''][g'b'])([f'a'][e'g'][f'a'][e'g'][d'f'][be'])!8va)! | %26
 ([ad'][gb][ad'][gb][_fa][eg])([d_f][Be][df][Be][Ad][GB])!<(! [Ad][GB][Ad][GB][Ad][GB][Ad][GB][Ad][GB][Ad][GB]!<)!!>(! [Ad][GB][Ad][GB][Ad][GB][Ad][GB][Ad][GB][Ad][GB]!>)! z2 !fermata!z2 =d2 || %27
[K:B][Q:1/4=144]"^Piu animato con passione" d6 d6 | d6- d4!<(! d2 | d4!<)! d2 (e4 d2) | %30
 (d6 G2) z2 G2 | (G2 A2 B2) (d4!>(! c2) | (c2 B2!>)! G2 F2) z2 z F | d6"_cre" d6 | %34
 d6-"_scen" d4 ^d2 | (.^d4 .=e2)"_do" (.d4 .e2) | =f6- f4!f! [=A,=A]2 | %37
!<(! ([=A,=A]2 [B,B]2 [=C=c]2!<)! !arpeggio![Ee]4 [=D=d]2 | %38
[K:C]"^semrpe string." [CGc]2) z2 z2 z2 z2 z [cc'] | %39
 [cf_ac']4-!<(! [cfac'][Bfab] [cfac']4- [cfac'][dfad']!<)! | %40
!>(! [ege']4- [ege'][dgd']!>)! [cgc']2 z2 z [ee'] | %41
 [eac'e']4-!<(! [eac'e'][^dac'^d'] [eac'e']4- [eac'e'][^f^f']!<)! |!ff! !>![^g^g']6 !>![gg']6 | %43
 !>![^g^g']6!>(! x4 z [gg']!>)! | !>![^g^g']4 z [gg'] [aa']4 z [gg'] | %45
!>(! ([^g^g']6!>)! [^c^c']2) z2 [cc']2 | %46
 ([^c=a^c']2!8va(!!<(! [^dab^d']2 [eabe']2!<)!!>(! !>![^gbd'^g']4 [^f^f']2)!>)! | %47
 ([^f^gb^f']2 [ee']2!8va)! [^c^^f^c']2 [Bgb]2) z2 [Bb]2 | !>![^g^g']6 !>![gg']6 | [^g^g']12 | %50
 [_a_a']6 [aa']6 ||[K:Ab]!8va(! ([a=d'a']4 [gg']2 [ff']2)!8va)! ([Gg]2 [Aa]2 | %52
!>(! ([cfac']6)!>)! [Bb]2) z2!8va(! [aa']2 | %53
 [a=d'a']3 [gg'] (3[bb'][aa'][gg'] [ff']2!8va)! ([Gg]2 [Aa]2 | %54
!>(! ([cfac']6)!>)! [Bb]2) z2!8va(! [aa']2 | %55
 ([a=d'a']3 [gg'][bb'][aa'] [_c'_c''][bb'] [g'g'']2) z [f'f''] | %56
 [e'e''][=d'=d''][=c'=c''][bb'][aa'][gg'] [ff']2!8va)! [Gg]2 [Aa]2 | %57
 (!>![cfac']4"_affrettando" [Bb]2) (!>![eabe']4 [_d_d']2) | %58
!8va(! (!>![gbd'g']4 [ff']2) (!>![c'f'c'']4 [bb']2) | !arpeggio!!^![f'g'b'd''f'']12!8va)! | %60
[Q:3/4=80]!8va(! =e''c''_e''_c''=d''b'_d''=a'=c''_a'=b'g'_b'_g'=a'"_dim."f'_a'_f'=g'_e'^f'=d'=f'_d'=e'c'_e'_c'=d'_b_d'=a=c'_a=bg_b_g!8va)!=af_a_f=ge^f=d=fd | %61
 (fedBG=D) (EGB_d=df) (egb_d'=d'f')!8va(! (e'g'b'd''=e''f'') c''d''=a'"_leggiero"b'^f'g'=e'=f'c'd'!8va)!=ab^fg=e=fcd=AB^FG=E=F | %62
 (=D_E_FE=FE^FEGE_AE =AEBE=B) z z2 !fermata!z2 E2 |[Q:1/4=144]"^Tempo I" c6 c6 | c6- c2 z2 c2 | %65
 (c4 c2 d4 c2) | (!>!c6 F2) z2 F2 | F2 G2 A2 c4 B2 | A6 z2 z2 E2 | c6 c6 | c6- c2 z2 c2 | %71
 (c4 c2 d4 c2) | f12 |"^poco" x6 !tenuto!B6 |"^riten." !tenuto!e12 | x6 !tenuto!_A6 | _d6- d4 c2 | %77
"_piu smorz." (!>!c4 B2)"^rit." (!>!c4 B2) | A2 z2 z x x2 x4 | %79
 ([ec']4 .[=ec']2 .[fc']2 .[_gd']2 .[gc']2 | .[_af']2) z2 z2 z6 | %81
 ([_db]4 .[=db]2 .[eb]2 .[_fc']2 .[fb]2 | .[_ge']2) z2 z2 z6 | !arpeggio![^C=E^c]12 | %84
 [=F_B]6- B4 c2 | A12 |!>(! A12!>)! | !arpeggio!!fermata![CA]12 |] %88
V:2
"^dolce cantando" E,2 |!ped![I:staff -1] C6[I:staff +1] C6 | %2
!ped![I:staff -1] C6- C4[I:staff +1] C2!ped-up! | %3
!ped![I:staff -1] C4!ped-up![I:staff +1] C2[I:staff -1] (D4[I:staff +1] C2) | %4
!ped![I:staff -1] (C6[I:staff +1] F,2) z2 F,2!ped-up! |!ped! (F,2 G,2 A,2) (C4 B,2)!ped-up! | %6
!ped! A,6 z2 z2 E,2!ped-up! |!ped! C6[I:staff -1] C6!ped-up! |!ped! C6- C4[I:staff +1] C2!ped-up! | %9
!ped![I:staff -1] C4[I:staff +1] C2 D4 C2!ped-up! |!ped! !>!F6 z2 z2 F,2!ped-up! | %11
!ped! (F,2 G,2 A,2) (C4 B,2)!ped-up! |!ped! A,2 z2 z2 x2 z2 z2!ped-up! | %13
!ped! (A,4- A,[I:staff -1] G,) (A,4- A,B,)!ped-up! |!ped! C6[I:staff +1] x2 z2 z2!ped-up! | %15
!ped! (C4- C[I:staff -1] =B,) (C4- C=D)!ped-up! |!ped! =E6[I:staff +1] !tenuto!=E6!ped-up! | %17
!ped![I:staff -1] !tenuto!=E6[I:staff +1] !tenuto!=E6!ped-up! | %18
!ped![I:staff -1] !tenuto!=E6[I:staff +1] !tenuto!=B,6!ped-up! | %19
!ped![I:staff -1] ^C6- C4[I:staff +1] ^G,2!ped-up! | %20
!ped![I:staff -1] ^A,4[I:staff +1] z2[I:staff -1] (_D4[I:staff +1] _C2)!ped-up! | %21
!ped![I:staff -1] _B,2[I:staff +1] (=A,2 _B,2)[I:staff -1] (!>!D4[I:staff +1] _C2)!ped-up! | %22
!ped![I:staff -1] B,2[I:staff +1] (=A,2 B,2)[I:staff -1] !^!_F6!ped-up! | %23
[I:staff +1] !fermata!_F2 (.E2 .D2 ._C2 .B,2 .A,2 | .=G,2) z2 z2!p! (E,,B,,D,G,B,D | %25
 _FE) z2[K:treble] _FEAGdB_feagd'b_f'e'!8va(!(a'g'a'g'_f'e')(d'bd'bag)!8va)! | %26
 (_fefedB)(AGAG_FE) FEFEFEFEFEFE FEFEFEFEFEFE z6 || %27
[K:B][K:bass]!ped! z (F,B,DB,F,) z (F,B,DB,F,)!ped-up! |!ped! z (^^F,CDCF,) z (F,CDCF,)!ped-up! | %29
!ped! z (^F,CDCF,) z (F,^B,DB,F,)!ped-up! |!ped! z (^E,=B,DB,E,) z (C,E,B,E,C,)!ped-up! | %31
!ped! z (=E,F,CF,E,) z (F,A,EA,F,)!ped-up! |!ped! z (B,,F,B,^E,B,) (F,D^CB,G,F,)!ped-up! | %33
!ped! z F,B,DB,F, z ^^F,CDCF,!ped-up! |!ped! z ^F,^B,DB,F, z F,=C_ECF,!ped-up! | %35
!ped! z =G,=C=ECG, z G,CECG,!ped-up! |!ped! z =A,[=C=D]=F[CD]A, z6!ped-up! | %37
!ped! z (=G,,[=D,=F,]=A,[D,F,]G,,) !arpeggio!.[G,,F,B,]2 z2 z2!ped-up! | %38
[K:C]!ped! [C,,E,]2[K:treble] cEGC[K:bass]EG,CE,G,C,!ped-up! | %39
!ped! [F,,F,]2 _ACF_A,CF,A,C,F,_A,,!ped-up! | %40
!ped! [C,,C,]2[K:treble] cEGC[K:bass]EG,CE,G,C,!ped-up! | %41
!ped! [A,,,A,,]2[K:treble] cEAC[K:bass]EA,CE,A,C,!ped-up! | %42
!ped! (E,B,^G,EB,G,) (E,B,G,EB,G,)!ped-up! |!ped! (^D,^B,^G,^FB,G, D,B,G,FB,G,)!ped-up! | %44
!ped! z (=B,^G,^FB,G,) z (B,G,^EB,G,)!ped-up! | %45
!ped! (^F,,!<(!=E,^A,A,=E^G)!<)! (GEA,A,E,F,,)!ped-up! | %46
!ped! (B,,,B,,^F,=A,^CE ^G^DB,A,^D,B,,)!ped-up! |!ped! (E,,B,,E,^G,^A,E B,^GEB,^G,B,,)!ped-up! | %48
!ped! (E,B,^G,EB,G,) (^D,^B,^G,^FB,G,)!ped-up! |!ped! (D,=B,^G,^EB,G, _D,B,_A,=FB,A,)!ped-up! | %50
!ped! (C,C_A,FCA,) (B,,_DA,FDA,)!ped-up! || %51
[K:Ab]!ped! z"^appassionato assai" (A,=DFDA, F,A,DFDA,)!ped-up! | %52
!ped! (E,,_D,F,A,B,_DFDB,A,F,D,)!ped-up! |!ped! z (A,=DFDA, F,A,DFDA,)!ped-up! | %54
!<(!!ped! (E,,_D,F,A,B,_DF!<)!DB,A,F,D,)!ped-up! |!ped! z (A,=DFDA,) z (F,A,DA,F,)!ped-up! | %56
!ped! z12!ped-up! |!ped! (E,,_D,F,A,B,_DFDB,A,F,D,)!ped-up! | %58
!ped! (E,,D,F,A,B,DAFDA,F,D,)!ped-up! |!ped! (E,,B,,D,G,B,D[K:treble]GBdgbd')!ped-up! | %60
!8va(! g'b'_g'=a'f'_a'=e'=g'_e'_g'=d'f'_d'=e'c'_e'_c'=d'b_d'=a=c'_a=bg_b_g=af_a!8va)!=e=g=e_g=df_d=ec_e_c=dB_d=A=c_A_c | %61
 [GB] z z2 z2 z4 x2 x4 x8 x8 !fermata!z8 x8 |[K:bass] x16 x8 | %63
"^dolce"!ped! A,,2 z2[K:treble] (.[eac']2 .[eac']2)"^armonioso" z2 z2!ped-up! | %64
[K:bass]!ped! G,,2 z2[K:treble] (.[=ebc']2 .[ebc']2) z2 z2!ped-up! | %65
[K:bass]!ped! F,,2 z2[K:treble] (.[e=ac']2 .[eac']2) z2 z2!ped-up! | %66
[K:bass]!ped! [B,,,B,,]2 z2[K:treble] (.[=dfc']2 .[df]2) z2 z2!ped-up! | %67
[K:bass]!ped! [E,,E,]2 z2[K:treble] a2 (c'4 b2)!ped-up! | %68
[K:bass]!ped! [A,,,A,,]2 z2[K:treble] (.[cea]2 .[cea]2) z2 z2!ped-up! | %69
[K:bass]!ped! !arpeggio![A,,E,C]2 z2[K:treble] (.[eac']2 .[eac']2) z2 z2!ped-up! | %70
[K:bass]!ped! !arpeggio![G,,=E,B,]2 z2[K:treble] (.[=ebc']2 .[ebc']2) z2 z2!ped-up! | %71
[K:bass]!ped! ([F,,=A,]6 [_E,,_G,]6!ped-up! | %72
!ped! [=D,,F,]2) z2[K:treble] (.[ac'f']2 .[a=bf']2) z2 z2!ped-up! | %73
[K:bass]!ped! [_D,,_F,]2 z2[K:treble] (.[_fa_b]2 .[fgb]2) z2 z2!ped-up! | %74
[K:bass]!ped! [C,,E,]2 z2[K:treble] (.[_gbe']2 .[g=ae']2) z2 z2!ped-up! | %75
[K:bass]!ped! [_C,,=D,]2 z2[K:treble] (.[=d_g_a]2 .[dfa]2) z2 z2!ped-up! | %76
[K:bass]!ped! [B,,,_D,]2 z2[K:treble] (.[fa_d']2 .[_fad']2) z2 z2!ped-up! | %77
[K:bass]!ped! z6 G,6!ped-up! |!ped! z (A,,,A,,E,A,[I:staff -1]CEAceab)!ped-up! | %79
[I:staff +1][K:treble]!ped! ([Ac]4 .[GB]2 .[F=A]2 .[_EA]2 .[EA]2!ped-up! | %80
!ped! .[=D_c]2) z2 z2 z6!ped-up! |!ped! ([_GB]4 .[_FA]2 .[E=G]2 .[_DG]2 .[DG]2!ped-up! | %82
!ped! .[C=A]2) z2 z2 z6!ped-up! |[K:bass]!ped! (!arpeggio![^C,,=A,]12!ped-up! | %84
!ped! _A,6 =G,6)!ped-up! |!ped! E,6- E,2 =D,2 E,2!ped-up! |!ped! (G,6 F,4 E,2)!ped-up! | %87
!ped! !arpeggio!!fermata![A,,E,]12!ped-up! |] %88
V:3
 z2 | A,,2 z2 z2 z6 | G,,2 z2 z2 z6 | F,,2 z2 z2 z6 | B,,,2 z2 z2 z6 | %5
 !arpeggio!E,,2 z2 z2 !arpeggio!E,2 z2 z2 | A,,2 z2 z2 A,,,2 z2 z2 | !arpeggio!A,,2 z2 z2 z6 | %8
 G,,2 z2 z2 _G,,2 z2 z2 | F,,2 z2 z2 !arpeggio![F,=A,]2 z2 z2 | !arpeggio!B,,2 z2 z2 B,,,2 z2 z2 | %11
 !arpeggio!E,,2 z2 z2 !arpeggio!E,2 z2 z2 | A,,2 x2 x2 A,,,2 x2 x2 | _F,,2 z2 z2 [D,,_F,]2 z2 z2 | %14
 .[A,,E,]2 z2 z2 .A,,,2 x4 | A,,2 z2 z2 [F,,A,]2 z2 z2 | [C,,G,]2 z2 z2 z6 | %17
 !arpeggio![=A,,=E,C]2 z2 z2 z6 | !arpeggio![=E,,=B,,^G,]2 z2 z2 z6 | %19
 !arpeggio![=E,,^G,]2 z2 z2 z6 | !arpeggio![^D,,^^F,]2 z2 z2 [_F,,_A,]2 z2 z2 | %21
 [_E,,=G,]2 z2 z2 [_F,,_A,]2 z2 z2 | [E,,G,]2 z2 z2 [D,,D,]2 z2 z2 | x12 | x12 | %25
 x4[K:treble] x14!8va(! x12!8va)! | x42 ||[K:B][K:bass] B,,2 x2 x8 | A,,2 x2 x8 | %29
 =A,,2 x2 x2 G,,2 x4 | C,,2 x2 x8 | F,,2 x2 x8 | x12 | B,,2 x2 x2 A,,2 x2 x2 | %34
 =A,,2 x2 x2 _A,,2 x2 x2 | =G,,2 x2 x8 | =G,,2 x2 x8 | x12 |[K:C] x2[K:treble] x4[K:bass] x6 | %39
 x12 | x2[K:treble] x4[K:bass] x6 | x2[K:treble] x4[K:bass] x6 | [E,,E,]6 [E,,E,]6 | %43
 [^D,,^D,]6 x2 x4 | [=D,,=D,]6 [^C,,^C,]6 | x12 | x12 | x12 | [E,,E,]6 [^D,,^D,]6 | [=D,,=D,]12 | %50
 [C,,C,]6 [B,,,B,,]6 ||[K:Ab] [_B,,,_B,,]2 x2 x8 | x12 | [B,,,B,,]2 x2 x8 | x12 | %55
 [_C,,_C,]6 [B,,,B,,]2 x4 | x12 | x12 | x12 | x6[K:treble] x6 |!8va(! x30!8va)! x18 | x48 | %62
[K:bass] x24 | x4[K:treble] x8 |[K:bass] x4[K:treble] x8 |[K:bass] x4[K:treble] x8 | %66
[K:bass] x4[K:treble] x8 |[K:bass] x4[K:treble] [B_d]2 !arpeggio![deg]2 x4 | %68
[K:bass] x4[K:treble] x8 |[K:bass] x4[K:treble] x8 |[K:bass] x4[K:treble] x8 |[K:bass] x12 | %72
 x4[K:treble] x8 |[K:bass] x4[K:treble] x8 |[K:bass] x4[K:treble] x8 |[K:bass] x4[K:treble] x8 | %76
[K:bass] x4[K:treble] x8 |[K:bass] E,,12 | x4 x z z6 |[K:treble] x12 | x12 | x12 | x12 | %83
[K:bass] x12 | !arpeggio!_E,,12 | A,,12 | !arpeggio!A,,12 | x12 |] %88
V:4
 x2 | x12 | x12 | x12 | x12 | x12 | x12 | x12 | x12 | x12 | x12 | x12 | x6 x4 x A, | x12 | %14
 x8 x2 x C | x12 | x12 | x12 | x12 | x12 | x12 | x12 | x12 | x12 | x12 | x12!8va(! x18!8va)! | %26
 x42 ||[K:B] z (DFBFD) z (DFBFD) | z (D^^FcFD) z (DFcFD) | z (D^FcFD) z!>(! (DF^BF!>)!D) | %30
 z (D^E=BED) z (B,CECB,) | z!<(! (C=EFE!<)!C) z (EFAFE) | z DFDG^^C F x x4 | z DFBFD z D^^FcFD | %34
 z D^F^BFD z _E^F=cF_E | z =E=G=cGE z EGcGE | z =F=A=cAF z6 | x12 |[K:C] x12 | x12 | x12 | x12 | %42
 (^gBe^GBe) gBeGBe | (^g^B^f^GBf gBfG) x2 | (^g=B^f^G) x2 (aB^eG) x2 | x12 | x2!8va(! x10 | %47
 x4!8va)! x8 | (^g"_sempre piu rinforzando"Be^GBe) g^B^fGBf | (^g=B^e^GBe _aB=f_ABf) | %50
 (_acf_Acf) (a_dfAdf) ||[K:Ab]!8va(! x8!8va)! x4 | x10!8va(! x2 | x8!8va)! x4 | x10!8va(! x2 | %55
 x12 | x8!8va)! x4 | x12 |!8va(! x12 | x12!8va)! |!8va(! x38!8va)! x10 | _d x x2 x4 x8 x32 | x24 | %63
 z (CEAEC) z (CEAEC) | z (C=EBEC) z (CEBEC) | z!<(! _EF=A!<)!FE z EFAFE | z _A,=DFDA, z A,B,DB,A, | %67
 z B,_DEDB, z DEGED | z CEFEC A,CEFEA | z =DEAEC z CEAEC | z C=EBEC z CEBEC | %71
 z CF=AFC z C!<(!_G=AGC!<)! | z F_A!>(!cAF z FA=BAF!>)! | z _B,_FAF"^a"B, z B,FG"^poco"FB, | %74
 z E_GBGE z EG=AGE | z _A,=D_GDA, z A,DFDA, | z _DFAFD z D_FAFD | z D_FGFD z DEGED | %78
 !arpeggio![CE]2 x2 x8 | x12 | x12 | x12 | x12 | x12 | x6 F2 _E4 | C6- C2 =B,2 C2 | (E6 _D4 C2) | %87
 x12 |] %88
V:5
 x2 | x12 | x12 | x12 | x12 | x12 | x12 | x12 | x12 | x12 | x12 | x12 | x12 | x12 | x12 | x12 | %16
 x12 | x12 | x12 | x12 | x12 | x12 | x8 (_A,2 B,2) | x12 | x12 | x4[K:treble] x14!8va(! x12!8va)! | %26
 x42 ||[K:B][K:bass] x12 | x12 | x12 | x12 | x12 | x12 | x12 | x12 | x12 | x12 | x12 | %38
[K:C] x2[K:treble] x4[K:bass] x6 | x12 | x2[K:treble] x4[K:bass] x6 | x2[K:treble] x4[K:bass] x6 | %42
 x12 | x12 | x12 | x12 | x12 | x12 | x12 | x12 | x12 ||[K:Ab] x12 | x12 | x12 | x12 | x12 | x12 | %57
 x12 | x12 | x6[K:treble] x6 |!8va(! x30!8va)! x18 | x48 |[K:bass] x24 | x4[K:treble] x8 | %64
[K:bass] x4[K:treble] x8 |[K:bass] x4[K:treble] x8 |[K:bass] x4[K:treble] x8 | %67
[K:bass] x4[K:treble] x8 |[K:bass] x4[K:treble] x8 |[K:bass] x4[K:treble] x8 | %70
[K:bass] x4[K:treble] x8 |[K:bass] x12 | x4[K:treble] x8 |[K:bass] x4[K:treble] x8 | %74
[K:bass] x4[K:treble] x8 |[K:bass] x4[K:treble] x8 |[K:bass] x4[K:treble] x8 |[K:bass] x12 | x12 | %79
[K:treble] x12 | x12 | x12 | x12 |[K:bass] x12 | x12 | x12 | x12 | x12 |] %88
V:6
 x2 | x12 | x12 | x12 | x12 | x12 | x12 | x12 | x12 | x12 | x12 | x12 | x12 | x12 | x12 | x12 | %16
 x12 | x12 | x12 | x12 | x12 | x12 | x12 | x12 | x12 | x12!8va(! x18!8va)! | x42 ||[K:B] x12 | %28
 x12 | x12 | x12 | x12 | x12 | x12 | x12 | x12 | x12 | x12 |[K:C] x12 | x12 | x12 | x12 | x12 | %43
 x12 | x12 | x12 | x2!8va(! x10 | x4!8va)! x8 | x12 | x12 | x12 ||[K:Ab]!8va(! x8!8va)! x4 | %52
 x10!8va(! x2 | x8!8va)! x4 | x10!8va(! x2 | x12 | x8!8va)! x4 | x12 |!8va(! x12 | x12!8va)! | %60
!8va(! x38!8va)! x10 | x18!8va(! x16!8va)! x14 | x24 | x12 | x12 | x12 | x12 | x12 | x12 | x12 | %70
 x12 | x12 | x12 | x12 | x12 | x12 | x12 | x12 | x12 | x12 | x12 | x12 | x12 | x12 | _D12 | x12 | %86
 x12 | x12 |] %88

